client/filepreviewer/pdfjs/web/images/secondaryToolbarButton-rotateCcw.svg

<svg width="16" height="16" viewBox="0 0 16 16" fill="none" xmlns="http://www.w3.org/2000/svg">
<path d="M3.4105 4.83612L4.77001 6.19601C5.06701 6.49201 4.85701 7.00001 4.43701 7.00001H0.862006C0.602006 7.00001 0.391006 6.78901 0.391006 6.52901V2.95401C0.391006 2.53401 0.899006 2.32401 1.19601 2.62101L2.32796 3.75328C3.67958 1.78973 5.9401 0.5 8.5 0.5C12.636 0.5 16 3.864 16 8C16 12.136 12.636 15.5 8.5 15.5C4.704 15.5 1.566 12.663 1.075 9H2.59C3.068 11.833 5.532 14 8.5 14C11.809 14 14.5 11.309 14.5 8C14.5 4.691 11.809 2 8.5 2C6.35262 2 4.46893 3.13503 3.4105 4.83612Z" fill="black"/>
</svg>

<svg xmlns="http://www.w3.org/2000/svg" width="16" height="16" fill="none"><path fill="#000" d="m3.41 4.836 1.36 1.36A.47.47 0 0 1 4.437 7H.862a.471.471 0 0 1-.471-.471V2.954c0-.42.508-.63.805-.333l1.132 1.132A7.483 7.483 0 0 1 8.5.5C12.636.5 16 3.864 16 8s-3.364 7.5-7.5 7.5c-3.796 0-6.934-2.837-7.425-6.5H2.59c.478 2.833 2.942 5 5.91 5 3.309 0 6-2.691 6-6s-2.691-6-6-6a5.99 5.99 0 0 0-5.09 2.836Z"/></svg>
